X:3
T: Leaving for Boston
C:Armand Aromin
M:3/4
L:1/4
H:4/9/04
K:D
D/2 G B/2 d | g/2 f g/4f/4 e | D/2 G B/2 d | g/2f/2e/2c/2 d | 
a/2 b f/2 a | f/2e/2d/2c/2 B | e/2 f d/2 e | c/2 d2 z/2 :|
|: a/2 b a/2 f | e/2 d B/4d/4 A | F/2 A F/2 B | A/4B/4 A2-A/2 |
f/2a/2f/2e/2 d | B/4d/4 A A/4B/4 F | f/2g/2f/2e/2 d | B/2 d2 z/2 :|
